X: 26
T: No_33_Come_Home,_Baby_Is_Crying.krn
N: Derived from No_33_Come_Home,_Baby_Is_Crying.krn
%%abc-version 2.0
%%abcx-abcm2ps-target-version 5.9.1 (29 Sep 2008)
%%abc-creator hum2abc beta
%%abcx-conversion-date 2019/03/15 08:35:00
%%humdrum-veritas 2218537805
%%humdrum-veritas-data 3055005510
%%linebreak <none>
%%barnumbers 0
L: 1/16
M: 2/4
K: G clef=bass
[K:clef=bass][M:2/4]E3D E2B,B, | 
D3E B,B,3 | 
B,A,G,G, E,E, z2 | 
A,4G,E, z2 | 
D3E EB,3 | 
B,A,G,2 E,E, z2 | 
A,3G, G,E, z2 | 
D3E D2B,B, | 
D3E EB,3 | 
B,A,G,2 E,E, z2 | 
A,4G,E, z2 | 
D3E EB,3 | 
B,A,G,2 G,E, z2 | 
A,4G,E, z2 | 
E3E E2B,B, | 
D3E EB,3 | 
B,A,G,2 G,E, z2 | 
A,4G,E, z2 |]  



